X:1
T:The Well-Tempered Clavier Part II Praeludium XII
T:BWV 881
T:J. S. Bach
%%score { ( 1 2 ) | ( 3 4 ) }
L:1/8
M:2/4
K:Ab
V:1 treble nm="Harp"
V:2 treble 
V:3 bass 
V:4 bass 
V:1
 z A | B/4A/4B/4A/4G z B | c/4B/4c/4B/4A z a | ag z f | f=e z/ G/C/G/ | z/ A/C/A/ z/ F/C/F/ | %6
 z/ G/C/G/ z/ B/C/B/ | z/ A/C/A/ z/ F/C/F/ | z/ G/C/G/ z A | AG z B | BA z c | cd z B | Bc z e | %13
 f/4e/4f/4e/4d z d | e/4d/4e/4d/4c z _g | _gf z a | ag z/ B/E/B/ | z/ c/E/c/ z/ A/E/A/ | %18
 z/ B/E/B/ z/ d/E/d/ | z/ c/E/c/ z/ =d/E/d/ | z/ e/E/e/ _G/A/c/e/ | e/c/A/F/ F/G/B/d/ | %22
 d/B/G/E/ E/F/A/c/ | c/A/F/D/ D/E/G/B/ | B/G/E/C/ z/ A/C/A/ | z/ A/D/A/ z/ A/C/A/ | %26
 z/ A/B,/A/ z/ A/A,/A/ | B,/A/_F/A/ E/G/D/G/ | GA z A | B/4A/4B/4A/4G z B | c/4B/4c/4B/4A z a | %31
 ag z f | f=e z/ G/C/G/ | z/ A/C/A/ z/ F/C/F/ | z/ G/C/G/ z/ B/C/B/ | z/ A/C/A/ z/ F/C/F/ | %36
 z/ G/C/G/ z A | AG z B | BA z c | cd z B | Bc z e | f/4e/4f/4e/4d z d | e/4d/4e/4d/4c z _g | %43
 _gf z a | ag z/ B/E/B/ | z/ c/E/c/ z/ A/E/A/ | z/ B/E/B/ z/ d/E/d/ | z/ c/E/c/ z/ =d/E/d/ | %48
 z/ e/E/e/ _G/A/c/e/ | e/c/A/F/ F/G/B/d/ | d/B/G/E/ E/F/A/c/ | c/A/F/D/ D/E/G/B/ | %52
 B/G/E/C/ z/ A/C/A/ | z/ A/D/A/ z/ A/C/A/ | z/ A/B,/A/ z/ A/A,/A/ | B,/A/_F/A/ E/G/D/G/ | GA z c | %57
 cB z d | dc z e | e=d z f | fe _g2 | f2 e2 | d2 =d2 | e2 f2- | fe z/ _g/f/g/ | B=A- A/e/d/e/ | %66
 _GF- F/d/c/d/ | E/c/B/c/- c/B=A/ | =AB ff/4e/4f/4e/4 | df Bd/f/ | ag ee/4d/4e/4d/4 | ce Ac/e/ | %72
 _gf Af | B/4A/4B/4A/4G Bg | c/4B/4c/4B/4A c/=e/f/a/ | d/a/c/a/ B/a/g/f/ | f/=e/=d/c/ a/f/_d/c/ | %77
 B/A/B/d/ _g/e/c/B/ | =A/G/A/c/ f/d/B/_A/ | _G/F/G/B/ e/c/=A/G/ | F/=E/F/e/ d z | G z B z | %82
 =E z z/ G/B,/G/ | A,/G/A,/F/ A,/F/A,/F/ | A,/F/=E z A | AG z G/A/ | B/d/c z c | %87
 B/A/G/F/ A/G/F/=E/ | =E/F/G/F/ E/F/B/F/ | =E/F/A/F/ E/F/d/F/ | =E/F/c/F/ _E/F/=A/c/ | %91
 c/=A/F/D/ D/E/G/B/ | B/G/E/C/ C/D/F/A/ | A/F/D/B,/ B,/C/=E/G/ | G/=E/C/A,/ z/ F/=A,/F/ | %95
 z/ G/B,/G/ z/ =A/_G/A/ | z/ B/F/B/ z/ A/F/A/ | z [FA] z/ G/4F/4G/4F/4=E/ | =EF z c | cB z d | %100
 dc z e | e=d z f | fe _g2 | f2 e2 | d2 =d2 | e2 f2- | fe z/ _g/f/g/ | B=A- A/e/d/e/ | %108
 _GF- F/d/c/d/ | E/c/B/c/- c/B=A/ | =AB ff/4e/4f/4e/4 | df Bd/f/ | ag ee/4d/4e/4d/4 | ce Ac/e/ | %114
 _gf Af | B/4A/4B/4A/4G Bg | c/4B/4c/4B/4A c/=e/f/a/ | d/a/c/a/ B/a/g/f/ | f/=e/=d/c/ a/f/_d/c/ | %119
 B/A/B/d/ _g/e/c/B/ | =A/G/A/c/ f/d/B/_A/ | _G/F/G/B/ e/c/=A/G/ | F/=E/F/e/ d z | G z B z | %124
 =E z z/ G/B,/G/ | A,/G/A,/F/ A,/F/A,/F/ | A,/F/=E z A | AG z G/A/ | B/d/c z c | %129
 B/A/G/F/ A/G/F/=E/ | =E/F/G/F/ E/F/B/F/ | =E/F/A/F/ E/F/d/F/ | =E/F/c/F/ _E/F/=A/c/ | %133
 c/=A/F/D/ D/E/G/B/ | B/G/E/C/ C/D/F/A/ | A/F/D/B,/ B,/C/=E/G/ | G/=E/C/A,/ z/ F/=A,/F/ | %137
 z/ G/B,/G/ z/ =A/_G/A/ | z/ B/F/B/ z/ A/F/A/ | z [FA] z/ G/4F/4G/4F/4=E/ | =E!fermata!F z2 |] %141
V:2
 z F | F=E z G | GF z c | cB z A | AG =E z | F z =D z | =E z G z | F z =D z | =E z z F | F=E z G | %10
 GF z A | AB z G | GA z c | cB z B | BA z e | ed z c | cB G z | A z F z | G z B z | A z F z | %20
 G z z[I:staff +1] A,- | A,F,[I:staff -1] z[I:staff +1] G,- | G,E,[I:staff -1] z[I:staff +1] F,- | %23
 F,D,[I:staff -1] z[I:staff +1] E,- | E,C, E,_G, | F,[I:staff -1] z z[I:staff +1] E, | %26
 D,[I:staff -1] z z[I:staff +1] _C, |[I:staff -1] z2 ED | DC z F | F=E z G | GF z c | cB z A | %32
 AG =E z | F z =D z | =E z G z | F z =D z | =E z z F | F=E z G | GF z A | AB z G | GA z c | %41
 cB z B | BA z e | ed z c | cB G z | A z F z | G z B z | A z F z | G z z[I:staff +1] A,- | %49
 A,F,[I:staff -1] z[I:staff +1] G,- | G,E,[I:staff -1] z[I:staff +1] F,- | %51
 F,D,[I:staff -1] z[I:staff +1] E,- | E,C, E,_G, | F,[I:staff -1] z z[I:staff +1] E, | %54
 D,[I:staff -1] z z[I:staff +1] _C, |[I:staff -1] z2 ED | DC z A | AG z B | BA z _G | _GF z A | %60
 A_G z2 | z2 c2- | cB _c2 | B2 A2 | _G2 z2 | x4 | z2 F2 | E2 DC | CD z2 | x4 | x4 | x4 | x4 | x4 | %74
 x4 | x4 | z2 z[I:staff +1] A, | G,2[I:staff -1] z[I:staff +1] _G, | %78
 F,C[I:staff -1] z[I:staff +1] F, | E,2[I:staff -1] z[I:staff +1] D, | C,2[I:staff -1] B z | %81
 E z D z | D z z B, | A,A, A,A, | A,G, z F | F=E z E- | E2 z F- | F z z[I:staff +1] B, | %88
 A,[I:staff -1] z z2 | x4 | x4 | z[I:staff +1] A, G,2- | G,G, F,2- | F,F, =E,2 | %94
[I:staff -1] z2 z C | z D z E | z B, z C | z D[I:staff +1] C,B, | B,A,[I:staff -1] z A | AG z B | %100
 BA z _G | _GF z A | A_G z2 | z2 c2- | cB _c2 | B2 A2 | _G2 z2 | x4 | z2 F2 | E2 DC | CD z2 | x4 | %112
 x4 | x4 | x4 | x4 | x4 | x4 | z2 z[I:staff +1] A, | G,2[I:staff -1] z[I:staff +1] _G, | %120
 F,C[I:staff -1] z[I:staff +1] F, | E,2[I:staff -1] z[I:staff +1] D, | C,2[I:staff -1] B z | %123
 E z D z | D z z B, | A,A, A,A, | A,G, z F | F=E z E- | E2 z F- | F z z[I:staff +1] B, | %130
 A,[I:staff -1] z z2 | x4 | x4 | z[I:staff +1] A, G,2- | G,G, F,2- | F,F, =E,2 | %136
[I:staff -1] z2 z C | z D z E | z B, z C | z D[I:staff +1] C,B, | B,!fermata!A, x2 |] %141
V:3
 F, z | C2 C,2 | F,2 F,,2 | B,,2 =B,,2 | C,2 z2 | z4 | z4 | z4 | z2 F,2 | C2 C,2 | F,2 F,,2 | %11
 B,,2 E,,2 | A,,2 A,2 | B,2 B,,2 | C,2 C2 | D2 =D2 | E2 z2 | z4 | z4 | z4 | z2 C,2 | D,2 B,,2 | %22
 C,2 A,,2 | B,,2 G,,2 | A,,2 z2 | z A,, _G,, z | z _F,, E,, z | =D,,2 z E,, | A,,2 F, z | C2 C,2 | %30
 F,2 F,,2 | B,,2 =B,,2 | C,2 z2 | z4 | z4 | z4 | z2 F,2 | C2 C,2 | F,2 F,,2 | B,,2 E,,2 | %40
 A,,2 A,2 | B,2 B,,2 | C,2 C2 | D2 =D2 | E2 z2 | z4 | z4 | z4 | z2 C,2 | D,2 B,,2 | C,2 A,,2 | %51
 B,,2 G,,2 | A,,2 z2 | z A,, _G,, z | z _F,, E,, z | =D,,2 z E,, | A,,2 A,2 | E2 E,2 | A,2 =A,2 | %59
 B,2 =D,2 | E,2[K:treble] z/ =A/E/A/ | z/ B/D/B/ z/ _G/=A,/G/ | z/ F/B,/F/ z/ A/B,/A/ | %63
 z/ _G/C/G/ z/ F/=D/F/ | z/ E/=D/E/ C/E/_D/E/ |[K:bass] F,/D/C/D/ G,/C/B,/C/ | %66
 =A,/B,/A,/B,/ D,/B,/A,/B,/ | _G,/F,/G,/E,/ F,F,, | B,,2 z/ D/C/D/ | B,/D/A,/D/ G,/D/F,/D/ | %70
 E,/G,/B,/D/ z/ C/B,/C/ | A,/C/_G,/C/ F,/C/E,/C/ | D,/F,/A,/C/ =D,/F,/A,/B,/ | %73
 E,/G,/B,/D/ =E,/G,/B,/C/ | F,/A,/C/=E/ FA | B,C DB, | CC, z F, | F,=E, z _E, | E,2 z D, | %79
 D,C, z B,, | B,,=A,, z/ B,/C/D/ | z/ C/B,/A,/ z/ G,/A,/B,/ | z/ A,/G,/F,/ =E,C | F,C D,=B, | %84
 C,C F,2 | B,2 D2 | G,2 A,2 | DB, CC, | D, z DD, | C,C B,B,, | A,,/C,/F,/G,/ =A,F, | B,,2 z E, | %92
 A,,2 z D, | G,,2 z C, | F,,A,, C,E, | D,F,, E,,C, | B,,D,, C,,C, | [=B,,=D,F,] z C,2 | F,2 A,2 | %99
 E2 E,2 | A,2 =A,2 | B,2 =D,2 | E,2 z/ =A/E/A/ | z/ B/D/B/ z/ _G/=A,/G/ | z/ F/B,/F/ z/ A/B,/A/ | %105
 z/ _G/C/G/ z/ F/=D/F/ | z/ E/=D/E/ C/E/_D/E/ | F,/D/C/D/ G,/C/B,/C/ | =A,/B,/A,/B,/ D,/B,/A,/B,/ | %109
 _G,/F,/G,/E,/ F,F,, | B,,2 z/ D/C/D/ | B,/D/A,/D/ G,/D/F,/D/ | E,/G,/B,/D/ z/ C/B,/C/ | %113
 A,/C/_G,/C/ F,/C/E,/C/ | D,/F,/A,/C/ =D,/F,/A,/B,/ | E,/G,/B,/D/ =E,/G,/B,/C/ | F,/A,/C/=E/ FA | %117
 B,C DB, | CC, z F, | F,=E, z _E, | E,2 z D, | D,C, z B,, | B,,=A,, z/ B,/C/D/ | %123
 z/ C/B,/A,/ z/ G,/A,/B,/ | z/ A,/G,/F,/ =E,C | F,C D,=B, | C,C F,2 | B,2 D2 | G,2 A,2 | DB, CC, | %130
 D, z DD, | C,C B,B,, | A,,/C,/F,/G,/ =A,F, | B,,2 z E, | A,,2 z D, | G,,2 z C, | F,,A,, C,E, | %137
 D,F,, E,,C, | B,,D,, C,,C, | [=B,,=D,F,] z C,2 | !fermata!F,2 z2 |] %141
V:4
 x2 | x4 | x4 | x4 | x4 | x4 | x4 | x4 | x4 | x4 | x4 | x4 | x4 | x4 | x4 | x4 | x4 | x4 | x4 | %19
 x4 | x4 | x4 | x4 | x4 | x4 | x4 | x4 | z B,, E,2- | E,2 z2 | x4 | x4 | x4 | x4 | x4 | x4 | x4 | %36
 x4 | x4 | x4 | x4 | x4 | x4 | x4 | x4 | x4 | x4 | x4 | x4 | x4 | x4 | x4 | x4 | x4 | x4 | x4 | %55
 z B,, E,2- | E,2 x2 | x4 | x4 | x4 | x2[K:treble] x2 | x4 | x4 | x4 | x4 |[K:bass] x4 | x4 | x4 | %68
 x4 | x4 | x4 | x4 | x4 | x4 | x4 | x4 | x4 | x4 | x4 | x4 | x4 | x4 | x4 | x4 | x4 | x4 | x4 | %87
 x4 | x4 | x4 | x4 | x4 | x4 | x4 | x4 | x4 | x4 | x4 | x4 | x4 | x4 | x4 | x4 | x4 | x4 | x4 | %106
 x4 | x4 | x4 | x4 | x4 | x4 | x4 | x4 | x4 | x4 | x4 | x4 | x4 | x4 | x4 | x4 | x4 | x4 | x4 | %125
 x4 | x4 | x4 | x4 | x4 | x4 | x4 | x4 | x4 | x4 | x4 | x4 | x4 | x4 | x4 | x4 |] %141

